X:1
T: The Massasoit Hornpipe
C:
R:Reel
Q: 232
K:D
M:4/4
L:1/8
|:A2|AF Ad fe dB|AF Ad de dB|AF Ad fe df|af ge fe dB|
AF Ad fe dB|AF Ad de dB|AF Ad fe df|gA Bc d2:|
|:de|fe df eA Ad|fe df ab ag|fe df eA AA|fd ec d2 de|
fe df eA Ad|fe df ab ag|fe df eA AA|fd ec d2:|
